symbols/web/nat/materialsymbolsoutlined/nat_wght300_40px.svg

<svg xmlns="http://www.w3.org/2000/svg" height="40" width="40"><path d="M6.833 24.583q-1.875 0-3.187-1.312-1.313-1.313-1.313-3.188 0-1.875 1.313-3.187 1.312-1.313 3.187-1.313 1.584 0 2.813.875t1.604 2.5h7.542v2.084H11.25q-.375 1.625-1.604 2.583-1.229.958-2.813.958Zm0-2.083q1 0 1.709-.708.708-.709.708-1.709t-.708-1.708q-.709-.708-1.709-.708-1.041 0-1.729.708-.687.708-.687 1.708t.687 1.709q.688.708 1.729.708Zm1.834 13.333V33.75q5.791 0 9.771-3.958 3.979-3.959 3.979-9.792t-3.979-9.792Q14.458 6.25 8.667 6.25V4.167q6.333 0 10.895 4.25 4.563 4.25 4.938 10.541h9.167l-3.334-3.375 1.459-1.5L37.708 20l-5.916 5.917-1.459-1.5 3.334-3.375H24.5q-.375 6.291-4.938 10.541-4.562 4.25-10.895 4.25Z"/></svg>

<svg xmlns="http://www.w3.org/2000/svg" height="40" width="40"><path d="M6.833 24.583Q4.958 24.583 3.646 23.271Q2.333 21.958 2.333 20.083Q2.333 18.208 3.646 16.896Q4.958 15.583 6.833 15.583Q8.417 15.583 9.646 16.458Q10.875 17.333 11.25 18.958H18.792V21.042H11.25Q10.875 22.667 9.646 23.625Q8.417 24.583 6.833 24.583ZM6.833 22.5Q7.833 22.5 8.542 21.792Q9.25 21.083 9.25 20.083Q9.25 19.083 8.542 18.375Q7.833 17.667 6.833 17.667Q5.792 17.667 5.104 18.375Q4.417 19.083 4.417 20.083Q4.417 21.083 5.104 21.792Q5.792 22.5 6.833 22.5ZM8.667 35.833V33.75Q14.458 33.75 18.438 29.792Q22.417 25.833 22.417 20Q22.417 14.167 18.438 10.208Q14.458 6.25 8.667 6.25V4.167Q15 4.167 19.562 8.417Q24.125 12.667 24.5 18.958H33.667L30.333 15.583L31.792 14.083L37.708 20L31.792 25.917L30.333 24.417L33.667 21.042H24.5Q24.125 27.333 19.562 31.583Q15 35.833 8.667 35.833Z"/></svg>
